public/apps/atelier-des-idees/src/img/icn_20px_contributors.svg

<svg xmlns="http://www.w3.org/2000/svg" width="20" height="20" viewBox="0 0 20 20"><path fill="#B7C8DB" fill-rule="evenodd" d="M16.31,12.7106444 C17.84,12.7106444 19.07,13.9862 19.07,15.5728667 L19.07,15.9773111 L15.725,15.9773111 L15.725,15.4328667 C15.725,12.9906444 13.88,11.0150889 11.555,10.9062 C11.48,10.8128667 11.435,10.7039778 11.405,10.5950889 C11.75,10.0039778 11.93,9.31953333 11.93,8.60397778 L11.93,6.78397778 C11.93,6.69064444 11.93,6.59731111 11.915,6.50397778 C12.335,6.06842222 12.905,5.80397778 13.535,5.80397778 C14.81,5.80397778 15.83,6.87731111 15.83,8.18397778 L15.83,9.73953333 C15.83,10.2995333 15.65,10.7973111 15.35,11.2017556 C15.05,11.9173111 15.215,12.7106444 16.01,12.7106444 L16.31,12.7106444 Z M11.84,12.1044444 C13.4,12.3533333 14.6,13.7377778 14.6,15.4333333 L14.6,15.9777778 L8.3,15.9777778 L2,15.9777778 L2,15.4333333 C2,13.5666667 3.455,12.0733333 5.24,12.0733333 C6.155,12.0733333 6.35,11.1555556 6.02,10.3155556 C5.66,9.84888889 5.45,9.25777778 5.45,8.60444444 L5.45,6.78444444 C5.45,5.24444444 6.65,4 8.12,4 C9.605,4 10.805,5.24444444 10.805,6.78444444 L10.805,8.60444444 C10.805,9.25777778 10.595,9.84888889 10.235,10.3155556 C9.905,11.1555556 10.085,12.0733333 11.015,12.0733333 L11.36,12.0733333 C11.525,12.0733333 11.69,12.0888889 11.84,12.1044444 Z"/></svg>

<svg viewBox="0 0 20 20"><path fill="#B7C8DB" fill-rule="evenodd" d="M16.31 12.71c1.53 0 2.76 1.276 2.76 2.863v.404h-3.345v-.544c0-2.442-1.845-4.418-4.17-4.527a.85.85 0 01-.15-.31 3.937 3.937 0 00.525-1.992v-1.82c0-.093 0-.187-.015-.28.42-.436.99-.7 1.62-.7 1.275 0 2.295 1.073 2.295 2.38V9.74c0 .56-.18 1.057-.48 1.462-.3.715-.135 1.509.66 1.509h.3zm-4.47-.606c1.56.25 2.76 1.634 2.76 3.33v.544H2v-.545c0-1.866 1.455-3.36 3.24-3.36.915 0 1.11-.917.78-1.757a2.78 2.78 0 01-.57-1.712v-1.82C5.45 5.244 6.65 4 8.12 4c1.485 0 2.685 1.244 2.685 2.784v1.82a2.78 2.78 0 01-.57 1.712c-.33.84-.15 1.757.78 1.757h.345c.165 0 .33.016.48.031z"/></svg>
